src/icon/action/erase/icon_erase_xl_black.svg

<svg width="36px" height="36px" viewBox="0 0 36 36" version="1.1" xmlns="http://www.w3.org/2000/svg"><g stroke="none" stroke-width="1" fill="none" fill-rule="evenodd"><rect x="0" y="0" width="36" height="36"/><path d="M13.9222304,29 L30,29 C31.7611479,29 33,27.764749 33,26 L33,10 C33,8.235251 31.7611479,7 30,7 L13.9222304,7 C13.5303289,7 13.1670666,7.15142329 12.8894963,7.4308043 L3.43218701,16.9498043 C3.15199505,17.231824 3,17.6009011 3,18 C3,18.3989338 3.15187972,18.7680599 3.43069673,19.0486957 L12.8894963,28.5691957 C13.1670666,28.8485767 13.5303289,29 13.9222304,29 Z M13.9222304,30 C13.2635271,30 12.6450614,29.742 12.1800945,29.274 L2.72129494,19.7535 C2.25632795,19.2855 2,18.663 2,18 C2,17.337 2.25632795,16.7145 2.72278522,16.245 L12.1800945,6.726 C12.6450614,6.258 13.2635271,6 13.9222304,6 L30,6 C32.3069516,6 34,7.6765 34,10 L34,26 C34,28.3235 32.3069516,30 30,30 L13.9222304,30 Z" fill="#0B1F35" fill-rule="nonzero"/><polygon fill="#0B1F35" points="17 23 21 19 25 23 26 21.978 22 18.009 26 14 25 13 21 17 17 13 16 14.0385 20 18.009 16 21.978"/></g></svg>

<svg width="36" height="36" viewBox="0 0 36 36" xmlns="http://www.w3.org/2000/svg"><g fill="none" fill-rule="evenodd"><path d="M0 0h36v36H0z"/><path d="M13.922 29H30c1.761 0 3-1.235 3-3V10c0-1.765-1.239-3-3-3H13.922a1.44 1.44 0 0 0-1.033.43l-9.457 9.52C3.152 17.232 3 17.6 3 18c0 .399.152.768.43 1.049l9.46 9.52c.277.28.64.431 1.032.431zm0 1a2.44 2.44 0 0 1-1.742-.726l-9.459-9.52A2.471 2.471 0 0 1 2 18c0-.663.256-1.285.723-1.755l9.457-9.519A2.44 2.44 0 0 1 13.922 6H30c2.307 0 4 1.676 4 4v16c0 2.323-1.693 4-4 4H13.922z" fill="#0B1F35" fill-rule="nonzero"/><path fill="#0B1F35" d="M17 23l4-4 4 4 1-1.022-4-3.969L26 14l-1-1-4 4-4-4-1 1.039 4 3.97-4 3.969z"/></g></svg>
